icon-themes/sifr_svg/cmd/sc_insertmath.svg

<svg viewBox="0 0 16 16" xmlns="http://www.w3.org/2000/svg"><path d="m6 1c-.3901466 0-.8170169.4-.94.875l-2.06 9.125-.6-5.0664062c-.0745519-.5335236-.5282856-.9336773-1.0660156-.9335938h-1.3339844v2h1l1 8c.1214093 1.185286 1.5820895 1.494701 2 0l3-12h7v1h2v-2c0-.554-.446-1-1-1zm2 4v2h4c.552285 0 1 .4477152 1 1v1h-4c-1.656855 0-3 1.343146-3 3s1.343145 3 3 3h6v-7c0-1.6568543-1.343146-3-3-3zm1 6h4v2h-4c-.552285 0-1-.447715-1-1s.447715-1 1-1z" fill="#555753"/></svg>

<svg xmlns="http://www.w3.org/2000/svg" viewBox="0 0 16 16">
  <path
     style="fill:#555753"
     d="M 6 1 C 5.6098534 1 5.1829831 1.4 5.06 1.875 L 3 11 L 2.4 5.9335938 C 2.3254481 5.4000702 1.8717144 4.9999165 1.3339844 5 L 0 5 L 0 7 L 1 7 L 2 15 C 2.1214093 16.185286 3.5820895 16.494701 4 15 L 7 3 L 14 3 L 14 4 L 16 4 L 16 2 C 16 1.446 15.554 1 15 1 L 6 1 z M 8 5 L 8 7 L 12 7 C 12.552285 7 13 7.4477152 13 8 L 13 9 L 9 9 C 7.343145 9 6 10.343146 6 12 C 6 13.656854 7.343145 15 9 15 L 15 15 L 15 8 C 15 6.3431457 13.656854 5 12 5 L 8 5 z M 9 11 L 13 11 L 13 13 L 9 13 C 8.447715 13 8 12.552285 8 12 C 8 11.447715 8.447715 11 9 11 z "
     />
</svg>
